X:204
T:Stone Field 
C:Joe Buchanan's Scottish Tome - Page 280.2
I:280 2
Z:Carl Allison
C:M. A. Johnstone
R:Jig
L:1/8
M:6/8
K:A
E | "A"ECE "E"AEA | "A"cAc "C#"edc | "Bm"BFB dBd | "Bm"fdB "E7"GFE |
"A"ECE "E"AEA | "A"cAc "C#"edc | "Bm"dcB "E7"e2d | "A"cAA "A"A2 :|
e | "A"aga "G#"b2e | "F#m"aga "E7"bge | "D"agf "C#m"edc | "Bm"fdB "E"B2 e |
"A"aga "G#"b2e | "F#m"aga "E"bge | "Bm"dcB "D7"e2d | "A"cAA "A"A2 "E7"e |
"A"aga "G#"b2e | "F#m"aga "E7"bge | "D"agf "C#m"edc | "Bm"fdB "E7"B2 E |
"A"ECE "E"AEA | "A"cAc "A#"ed"F#m"c | "Bm"BFB "E7"e2 d | "A"cAA "A/C7"A2 |]

